resources/svg/soundcloud.svg

<svg xmlns="http://www.w3.org/2000/svg" viewBox="0 0 24 24" fill="currentColor"><path fill="currentColor" fill-rule="evenodd" d="M20.727,11.676925 C22.4007273,11.676925 23.7572727,13.04505 23.7572727,14.73245 C23.7572727,16.4204 22.4007273,17.788525 20.727,17.788525 C20.673,17.788525 12.3349091,17.7844 12.327,17.783575 C12.1461818,17.765425 12.0021818,17.6095 12,17.4225 L12,7.72435 C12.0021818,7.54615 12.0627273,7.454575 12.2915455,7.3652 C12.8803636,7.135575 13.5463636,7 14.2300909,7 C17.0236364,7 19.3137273,9.1604 19.5550909,11.913975 C19.9156364,11.761625 20.3119091,11.676925 20.727,11.676925 Z M10.2361478,18 L9.26385224,18 C9.11873351,18 9,17.8782028 9,17.7293396 L9,7.77066041 C9,7.62152652 9.11873351,7.5 9.26385224,7.5 L10.2361478,7.5 C10.3812665,7.5 10.5,7.62152652 10.5,7.77066041 L10.5,17.7293396 C10.5,17.8782028 10.3812665,18 10.2361478,18 Z M1.23614776,16.4971721 L0.263852243,16.4971721 C0.118733509,16.4971721 0,16.3760415 0,16.2279931 L0,13.7663511 C0,13.6183026 0.118733509,13.4971721 0.263852243,13.4971721 L1.23614776,13.4971721 C1.38126649,13.4971721 1.5,13.6183026 1.5,13.7663511 L1.5,16.2279931 C1.5,16.3760415 1.38126649,16.4971721 1.23614776,16.4971721 Z M7.23614776,18 L6.26385224,18 C6.11873351,18 6,17.8844164 6,17.7431475 L6,11.2568525 C6,11.1155836 6.11873351,11 6.26385224,11 L7.23614776,11 C7.38126649,11 7.5,11.1155836 7.5,11.2568525 L7.5,17.7431475 C7.5,17.8844164 7.38126649,18 7.23614776,18 Z M4.23614776,18 L3.26385224,18 C3.11873351,18 3,17.8871563 3,17.7492363 L3,12.7507637 C3,12.6128437 3.11873351,12.5 3.26385224,12.5 L4.23614776,12.5 C4.38126649,12.5 4.5,12.6128437 4.5,12.7507637 L4.5,17.7492363 C4.5,17.8871563 4.38126649,18 4.23614776,18 Z"/></svg>

<svg viewBox="0 0 24 24"><path fill="currentColor" fill-rule="evenodd" d="M20.727 11.677c1.674 0 3.03 1.368 3.03 3.055c0 1.688-1.356 3.057-3.03 3.057l-8.4-.005a.368.368 0 0 1-.327-.361V7.723c.002-.178.063-.27.292-.359A5.377 5.377 0 0 1 14.23 7c2.794 0 5.084 2.16 5.325 4.914c.36-.152.757-.237 1.172-.237zM10.237 18h-.973A.268.268 0 0 1 9 17.73V7.77c0-.148.119-.27.264-.27h.972c.145 0 .264.122.264.27v9.96c0 .148-.119.27-.264.27zm-9-1.503H.263A.267.267 0 0 1 0 16.228v-2.462c0-.148.119-.269.264-.269h.972c.145 0 .264.121.264.27v2.461c0 .148-.119.27-.264.27zm6 1.503h-.973A.261.261 0 0 1 6 17.743v-6.486c0-.141.119-.257.264-.257h.972c.145 0 .264.116.264.257v6.486a.261.261 0 0 1-.264.257zm-3 0h-.973A.258.258 0 0 1 3 17.75v-5c0-.137.119-.25.264-.25h.972c.145 0 .264.113.264.25v5c0 .137-.119.25-.264.25z"/></svg>
